X: 24333
T: Lough Sheeling
R: waltz
M: 3/4
K: Dminor
A^c|d3 efd|c2 A2 FA|B3 BAG|^G2 A z A ^c|
d3 efd|{d}c2 A z FA|G3 FEA|(F>E) D z (AG)|
F3 GAF|{A}G2 F2 FA|B3 BAG|^G2 A z A ^c|
d3 efd|{d}c2 A z FA|(G2 A) BA^C|E2 D z z2||

